X:1
T:Title
%%score { 1 | ( 2 3 ) }
L:1/8
Q:1/4=100
M:4/4
K:A
V:1 treble nm="Grand Piano"
V:2 bass 
V:3 bass 
V:1
 [CE]3 [CE] [CE]2 [CE]2 | F2 A2 B2 [CA]2 | A2 GF c2 G2 | A2 [FB]2 [^Ec]4 | e2 B2 d2 c2 | %5
 [B,GB]2 [DFA]2 [EG]2 [A,DF]2 | [A,CE]4 [DB]4 | [CA]8 |] %8
V:2
 [A,,A,]3 [A,,A,] [A,,A,]2 [A,,A,]2 | [D,A,D]2 [F,A,D]2 [E,G,D]2 [A,,A,]2 | z2 .B,2 z4 | %3
 [F,A,C]2 [D,F,]2 [C,G,]4 | [G,B,E]2 [G,B,E]2 [A,E]2 [A,E]2 | D,2 B,,2 C,2 D,2 | E,4 [E,G,]4 | %7
 [A,,A,]8 |] %8
V:3
 x8 | x8 | [F,A,C]2 [F,C]-[F,A,C] [^E,G,C]2 [E,B,C]2 | x8 | x8 | x8 | x8 | x8 |] %8

